svg/u1f933_1f3ff.svg

<svg viewBox="0 0 128 128" xmlns="http://www.w3.org/2000/svg">
  <linearGradient id="d" gradientUnits="userSpaceOnUse" x1="56.3" x2="56.3" y1="76.893" y2="118.9">
    <stop offset="0" stop-color="#64B5F6"/>
    <stop offset="1" stop-color="#2196F3"/>
  </linearGradient>
  <path d="m74.18 123.88c-7.44 0-70.38 0.05-70.38 0.05l0.08-49.86 37.47 16.84c5.04 1.87 10.65 1.34 15.25-1.44l33.6-20.93 18.6 9.38s-26.81 45.96-34.62 45.96z" fill="url(#d)"/>
  <g opacity=".2">
    <path d="m90.27 71.97 14.44 7.07c-2.39 3.98-7.08 11.67-12.23 19.4-13.58 20.38-17.8 22.27-18.4 22.44-6.8 0-54.73 0.04-67.29 0.05l0.07-42.23 33.25 14.94c0.06 0.03 0.12 0.05 0.19 0.08 2.3 0.85 4.72 1.29 7.18 1.29 3.76 0 7.45-1.03 10.71-2.99l32.08-20.05m-0.18-3.43-33.5 20.93c-2.79 1.68-5.94 2.54-9.12 2.54-2.07 0-4.15-0.36-6.13-1.1l-37.47-16.84-0.07 49.86s62.94-0.05 70.38-0.05c7.81 0 34.78-46.11 34.78-46.11l-18.87-9.23z" fill="#424242"/>
  </g>
  <linearGradient id="c" gradientUnits="userSpaceOnUse" x1="100.11" x2="104.64" y1="36.431" y2="74.468">
    <stop offset="0" stop-color="#70534A"/>
    <stop offset=".4661" stop-color="#6D5047"/>
    <stop offset=".8408" stop-color="#63463D"/>
    <stop offset=".9991" stop-color="#5C4037"/>
  </linearGradient>
  <path d="m106.31 79.01c-0.33 0-0.6-0.07-0.85-0.22l-0.14-0.08-0.15-0.05c-0.07-0.02-6.95-2.38-12.84-5.98-9.63-5.9-8.07-14.27-6.93-20.39 0.19-1 0.36-1.95 0.47-2.81 0.31-2.44-0.61-5.57-1.58-8.88-1.06-3.61-2.39-8.1-0.91-9.36 0.84-0.71 1.73-1.06 2.73-1.06 2.34 0 4.61 1.99 5.17 3.06 0.85 1.61 2.82 6.75 1.8 11.15-0.12 0.5-0.25 1.04-0.4 1.6-1.02 3.96-2.57 9.95 1.81 12.79 2.18 1.42 5.54 2.07 10.57 2.07 1.43 0 2.8-0.05 4.02-0.09 0.94-0.03 1.79-0.06 2.49-0.06 4.12 0 7.78 0.24 9.92 0.41-1.9 4.22-6.99 14.4-13.14 17.34-0.84 0.36-1.5 0.56-2.04 0.56z" fill="url(#c)"/>
  <path d="m86.1 31.65c1.73 0 3.5 1.6 3.85 2.25 1.08 2.05 2.48 6.6 1.66 10.11-0.11 0.49-0.25 1.01-0.39 1.56-1.06 4.11-2.84 11 2.45 14.43 2.47 1.6 5.98 2.32 11.39 2.32 1.45 0 2.84-0.05 4.07-0.09 0.95-0.03 1.77-0.06 2.43-0.06 2.92 0 5.59 0.12 7.66 0.25-2.5 5.11-6.87 12.42-11.52 14.65-0.8 0.38-1.21 0.44-1.39 0.44-0.05 0-0.07 0-0.08-0.01l-0.28-0.17-0.31-0.11c-0.07-0.02-6.8-2.33-12.54-5.84-8.75-5.36-7.36-12.83-6.24-18.84 0.19-1.03 0.37-2 0.49-2.9 0.35-2.76-0.61-6.03-1.63-9.49-0.66-2.22-2.02-6.85-1.38-7.79 0.57-0.48 1.13-0.71 1.76-0.71m0-3c-1.23 0-2.5 0.4-3.7 1.42-3.74 3.19 2.65 13.96 1.98 19.19-0.76 5.94-5.03 17.21 7.16 24.67 6.11 3.74 13.14 6.13 13.14 6.13 0.52 0.31 1.07 0.44 1.63 0.44 0.9 0 1.82-0.32 2.68-0.74 8.42-4.02 14.69-20 14.69-20s-5.4-0.61-12.12-0.61c-1.61 0-3.98 0.16-6.5 0.16-3.57 0-7.42-0.31-9.76-1.83-3.99-2.59-1.69-8.83-0.77-12.79 1.08-4.66-0.81-10.06-1.93-12.18-0.79-1.5-3.51-3.86-6.5-3.86z" fill="#4A2F27"/>
  <path d="m120.22 63.99-30.42-0.12v-56.88c0-1.59 1.21-2.88 2.7-2.88h25.02c1.49 0 2.7 1.29 2.7 2.88v57z" fill="#9E9E9E"/>
  <path d="M116,63.99l-26.19-0.12V6.99c0-1.59,1.21-2.88,2.7-2.88H116V63.99z" fill="#eee"/>
  <linearGradient id="b" gradientUnits="userSpaceOnUse" x1="103.74" x2="103.74" y1="53.117" y2="10.529">
    <stop offset="0" stop-color="#2196F3"/>
    <stop offset="1" stop-color="#64B5F6"/>
  </linearGradient>
  <polygon fill="url(#b)" points="112.11 53.12 95.36 53.03 95.36 10.53 112.11 10.53"/>
  <g opacity=".2">
    <path d="m115.98 6.02 1.5-0.02h0.06c0.35 0 0.75 0.42 0.75 0.92l-0.13 55.04-2.4 0.03h-0.01c-0.08 0-0.03-0.01-0.11 0l-23.64-0.11v-54.89c0-0.48 0.17-0.9 0.55-0.9l23.43-0.07m0.02-1.95-23.45 0.05c-1.49 0-2.55 1.28-2.55 2.87v56.89l26 0.12v-0.02l4.27 0.02 0.07-57c0-1.59-1.29-2.87-2.78-2.87l-1.56-0.06z" fill="#424242"/>
  </g>
  <linearGradient id="a" gradientUnits="userSpaceOnUse" x1="106.97" x2="123.21" y1="47.538" y2="47.538">
    <stop offset="0" stop-color="#70534A"/>
    <stop offset=".4661" stop-color="#6D5047"/>
    <stop offset=".8408" stop-color="#63463D"/>
    <stop offset=".9991" stop-color="#5C4037"/>
  </linearGradient>
  <path d="m114.25 64.45c-1.9 0-3.54-1.47-3.81-3.42-0.15-1.07 0.11-2.13 0.75-2.99 0.19-0.26 0.25-0.6 0.14-0.91-0.1-0.31-0.35-0.55-0.66-0.64-1.43-0.43-2.51-1.74-2.75-3.34-0.27-1.81 0.61-3.58 2.13-4.31 0.39-0.19 0.62-0.61 0.56-1.04s-0.4-0.77-0.83-0.85c-1.73-0.29-2.96-2.09-2.79-4.1 0.15-1.8 1.35-3.28 2.91-3.6 0.38-0.08 0.68-0.36 0.77-0.73s-0.03-0.77-0.33-1.01c-1.13-0.94-1.64-2.33-1.36-3.71 0.37-1.83 2.05-3.16 3.99-3.16 0.27 0 0.55 0.03 0.82 0.08l6.1 1.18c1.1 0.21 2.05 0.83 2.66 1.74 0.57 0.86 0.78 1.88 0.58 2.87-0.24 1.17-0.95 1.91-1.51 2.32-0.26 0.19-0.41 0.5-0.4 0.82 0 0.32 0.16 0.62 0.42 0.81 1.08 0.76 1.68 2.14 1.56 3.6-0.09 1.09-0.57 2.08-1.34 2.79-0.2 0.19-0.32 0.45-0.33 0.72 0 0.28 0.11 0.54 0.3 0.73 0.68 0.66 1.11 1.5 1.25 2.43 0.25 1.66-0.43 3.27-1.74 4.11-0.28 0.18-0.45 0.48-0.46 0.81s0.14 0.64 0.41 0.84c0.88 0.64 1.45 1.59 1.6 2.68 0.31 2.18-1.15 4.21-3.26 4.53l-4.83 0.72c-0.18 0.01-0.37 0.03-0.55 0.03z" fill="url(#a)"/>
  <path d="m112.97 31.63c0.21 0 0.42 0.02 0.63 0.06l6.1 1.18c0.84 0.16 1.56 0.63 2.02 1.32 0.42 0.63 0.58 1.39 0.43 2.12-0.17 0.86-0.71 1.41-1.13 1.72-0.52 0.38-0.82 0.99-0.81 1.63s0.32 1.24 0.85 1.61c0.79 0.56 1.23 1.59 1.14 2.7-0.07 0.84-0.43 1.6-1.02 2.13-0.41 0.37-0.64 0.9-0.65 1.45s0.21 1.08 0.61 1.47c0.36 0.35 0.82 0.96 0.96 1.86 0.19 1.25-0.33 2.5-1.29 3.13-0.55 0.36-0.89 0.96-0.91 1.62s0.29 1.28 0.82 1.67c0.66 0.48 1.08 1.2 1.2 2.01 0.23 1.64-0.85 3.16-2.42 3.4l-4.83 0.72c-0.13 0.02-0.27 0.03-0.41 0.03-1.4 0-2.62-1.1-2.82-2.56-0.11-0.81 0.08-1.61 0.56-2.26 0.38-0.52 0.49-1.2 0.28-1.82s-0.7-1.09-1.32-1.28c-1.06-0.32-1.87-1.31-2.05-2.53-0.21-1.38 0.44-2.72 1.58-3.26 0.79-0.38 1.24-1.22 1.12-2.08s-0.79-1.55-1.65-1.69c-1.22-0.2-2.08-1.54-1.95-3.03 0.11-1.34 1-2.48 2.11-2.7 0.75-0.15 1.35-0.72 1.54-1.47s-0.07-1.53-0.66-2.02c-0.84-0.7-1.23-1.73-1.02-2.74 0.26-1.4 1.52-2.39 2.99-2.39m0-2c-2.38 0-4.5 1.62-4.97 3.96-0.37 1.8 0.35 3.55 1.7 4.68-1.94 0.4-3.51 2.2-3.71 4.5-0.22 2.58 1.38 4.8 3.62 5.17-1.88 0.9-3.04 3.05-2.69 5.36 0.31 2.05 1.71 3.63 3.45 4.15-0.75 1.03-1.12 2.35-0.93 3.72 0.35 2.49 2.43 4.28 4.8 4.28 0.23 0 0.46-0.02 0.7-0.05l4.83-0.72c2.65-0.39 4.49-2.93 4.1-5.66-0.2-1.41-0.96-2.58-2-3.35 1.58-1.02 2.5-3 2.18-5.1-0.18-1.21-0.76-2.24-1.55-3 0.91-0.83 1.54-2.05 1.66-3.44 0.16-1.88-0.66-3.57-1.98-4.5 0.94-0.7 1.65-1.71 1.9-2.92 0.54-2.67-1.26-5.26-4.02-5.8l-6.1-1.18c-0.32-0.07-0.66-0.1-0.99-0.1z" fill="#4A2F27"/>
  <path d="m111.12 38.55c3.52 0.14 6.23 0.4 9.69 1.07" fill="none" stroke="#4A2F27" stroke-linecap="round" stroke-linejoin="round" stroke-miterlimit="10" stroke-width="3"/>
  <path d="m111.12 47.55c3.41 0.2 6.23-0.17 9.69 0.5" fill="none" stroke="#4A2F27" stroke-linecap="round" stroke-linejoin="round" stroke-miterlimit="10" stroke-width="3"/>
  <path d="m112.11 57c2.07-0.26 6.83-0.52 8.71-0.52" fill="none" stroke="#4A2F27" stroke-linecap="round" stroke-linejoin="round" stroke-miterlimit="10" stroke-width="3"/>
</svg>

<svg viewBox="0 0 128 128" xmlns="http://www.w3.org/2000/svg">
  <defs>
    <linearGradient id="d" gradientUnits="userSpaceOnUse" x1="56.3" x2="56.3" y1="76.893" y2="118.9">
      <stop offset="0" stop-color="#64B5F6"/>
      <stop offset="1" stop-color="#2196F3"/>
    </linearGradient>
    <linearGradient id="c" gradientUnits="userSpaceOnUse" x1="100.11" x2="104.64" y1="36.431" y2="74.468">
      <stop offset="0" stop-color="#70534A"/>
      <stop offset=".4661" stop-color="#6D5047"/>
      <stop offset=".8408" stop-color="#63463D"/>
      <stop offset=".9991" stop-color="#5C4037"/>
    </linearGradient>
    <linearGradient id="b" gradientUnits="userSpaceOnUse" x1="103.74" x2="103.74" y1="53.117" y2="10.529">
      <stop offset="0" stop-color="#2196F3"/>
      <stop offset="1" stop-color="#64B5F6"/>
    </linearGradient>
    <linearGradient id="a" gradientUnits="userSpaceOnUse" x1="106.97" x2="123.21" y1="47.538" y2="47.538">
      <stop offset="0" stop-color="#70534A"/>
      <stop offset=".4661" stop-color="#6D5047"/>
      <stop offset=".8408" stop-color="#63463D"/>
      <stop offset=".9991" stop-color="#5C4037"/>
    </linearGradient>
  </defs>
  <path d="M74.18,123.88 C66.74,123.88 3.8,123.93 3.8,123.93 L3.88,74.07 L41.35,90.91 C46.39,92.78 52,92.25 56.6,89.47 L90.2,68.54 L108.8,77.92 C108.8,77.92 81.99,123.88 74.18,123.88 Z" fill="url(#d)"/>
  <path d="M90.27,71.97 L104.71,79.04 C102.32,83.02 97.63,90.71 92.48,98.44 C78.9,118.82 74.68,120.71 74.08,120.88 C67.28,120.88 19.35,120.92 6.79,120.93 L6.86,78.7 L40.11,93.64 C40.17,93.67 40.23,93.69 40.3,93.72 C42.6,94.57 45.02,95.01 47.48,95.01 C51.24,95.01 54.93,93.98 58.19,92.02 L90.27,71.97 M90.09,68.54 L56.59,89.47 C53.8,91.15 50.65,92.01 47.47,92.01 C45.4,92.01 43.32,91.65 41.34,90.91 L3.87,74.07 L3.8,123.93 C3.8,123.93 66.74,123.88 74.18,123.88 C81.99,123.88 108.96,77.77 108.96,77.77 L90.09,68.54 Z" fill="#424242" opacity="0.2"/>
  <path d="M106.31,79.01 C105.98,79.01 105.71,78.94 105.46,78.79 L105.32,78.71 L105.17,78.66 C105.1,78.64 98.22,76.28 92.33,72.68 C82.7,66.78 84.26,58.41 85.4,52.29 C85.59,51.29 85.76,50.34 85.87,49.48 C86.18,47.04 85.26,43.91 84.29,40.6 C83.23,36.99 81.9,32.5 83.38,31.24 C84.22,30.53 85.11,30.18 86.11,30.18 C88.45,30.18 90.72,32.17 91.28,33.24 C92.13,34.85 94.1,39.99 93.08,44.39 C92.96,44.89 92.83,45.43 92.68,45.99 C91.66,49.95 90.11,55.94 94.49,58.78 C96.67,60.2 100.03,60.85 105.06,60.85 C106.49,60.85 107.86,60.8 109.08,60.76 C110.02,60.73 110.87,60.7 111.57,60.7 C115.69,60.7 119.35,60.94 121.49,61.11 C119.59,65.33 114.5,75.51 108.35,78.45 C107.51,78.81 106.85,79.01 106.31,79.01 Z" fill="url(#c)"/>
  <path d="M86.1,31.65 C87.83,31.65 89.6,33.25 89.95,33.9 C91.03,35.95 92.43,40.5 91.61,44.01 C91.5,44.5 91.36,45.02 91.22,45.57 C90.16,49.68 88.38,56.57 93.67,60 C96.14,61.6 99.65,62.32 105.06,62.32 C106.51,62.32 107.9,62.27 109.13,62.23 C110.08,62.2 110.9,62.17 111.56,62.17 C114.48,62.17 117.15,62.29 119.22,62.42 C116.72,67.53 112.35,74.84 107.7,77.07 C106.9,77.45 106.49,77.51 106.31,77.51 C106.26,77.51 106.24,77.51 106.23,77.5 L105.95,77.33 L105.64,77.22 C105.57,77.2 98.84,74.89 93.1,71.38 C84.35,66.02 85.74,58.55 86.86,52.54 C87.05,51.51 87.23,50.54 87.35,49.64 C87.7,46.88 86.74,43.61 85.72,40.15 C85.06,37.93 83.7,33.3 84.34,32.36 C84.91,31.88 85.47,31.65 86.1,31.65 M86.1,28.65 C84.87,28.65 83.6,29.05 82.4,30.07 C78.66,33.26 85.05,44.03 84.38,49.26 C83.62,55.2 79.35,66.47 91.54,73.93 C97.65,77.67 104.68,80.06 104.68,80.06 C105.2,80.37 105.75,80.5 106.31,80.5 C107.21,80.5 108.13,80.18 108.99,79.76 C117.41,75.74 123.68,59.76 123.68,59.76 C123.68,59.76 118.28,59.15 111.56,59.15 C109.95,59.15 107.58,59.31 105.06,59.31 C101.49,59.31 97.64,59 95.3,57.48 C91.31,54.89 93.61,48.65 94.53,44.69 C95.61,40.03 93.72,34.63 92.6,32.51 C91.81,31.01 89.09,28.65 86.1,28.65 Z" fill="#4A2F27"/>
  <path d="M120.22,63.99 L89.8,63.87 L89.8,6.99 C89.8,5.4 91.01,4.11 92.5,4.11 L117.52,4.11 C119.01,4.11 120.22,5.4 120.22,6.99 L120.22,63.99 Z" fill="#9E9E9E"/>
  <path d="M116,63.99 L89.81,63.87 L89.81,6.99 C89.81,5.4 91.02,4.11 92.51,4.11 L116,4.11 L116,63.99 Z" fill="#eee"/>
  <path d="M112.11,53.12 L95.36,53.03 L95.36,10.53 L112.11,10.53 Z" fill="url(#b)"/>
  <path d="M115.98,6.02 L117.48,6 L117.54,6 C117.89,6 118.29,6.42 118.29,6.92 L118.16,61.96 L115.76,61.99 L115.75,61.99 C115.67,61.99 115.72,61.98 115.64,61.99 L92,61.88 L92,6.99 C92,6.51 92.17,6.09 92.55,6.09 L115.98,6.02 M116,4.07 L92.55,4.12 C91.06,4.12 90,5.4 90,6.99 L90,63.88 L116,64 L116,63.98 L120.27,64 L120.34,7 C120.34,5.41 119.05,4.13 117.56,4.13 L116,4.07 Z" fill="#424242" opacity="0.2"/>
  <path d="M114.25,64.45 C112.35,64.45 110.71,62.98 110.44,61.03 C110.29,59.96 110.55,58.9 111.19,58.04 C111.38,57.78 111.44,57.44 111.33,57.13 C111.23,56.82 110.98,56.58 110.67,56.49 C109.24,56.06 108.16,54.75 107.92,53.15 C107.65,51.34 108.53,49.57 110.05,48.84 C110.44,48.65 110.67,48.23 110.61,47.8 C110.55,47.37 110.21,47.03 109.78,46.95 C108.05,46.66 106.82,44.86 106.99,42.85 C107.14,41.05 108.34,39.57 109.9,39.25 C110.28,39.17 110.58,38.89 110.67,38.52 C110.76,38.15 110.64,37.75 110.34,37.51 C109.21,36.57 108.7,35.18 108.98,33.8 C109.35,31.97 111.03,30.64 112.97,30.64 C113.24,30.64 113.52,30.67 113.79,30.72 L119.89,31.9 C120.99,32.11 121.94,32.73 122.55,33.64 C123.12,34.5 123.33,35.52 123.13,36.51 C122.89,37.68 122.18,38.42 121.62,38.83 C121.36,39.02 121.21,39.33 121.22,39.65 C121.22,39.97 121.38,40.27 121.64,40.46 C122.72,41.22 123.32,42.6 123.2,44.06 C123.11,45.15 122.63,46.14 121.86,46.85 C121.66,47.04 121.54,47.3 121.53,47.57 C121.53,47.85 121.64,48.11 121.83,48.3 C122.51,48.96 122.94,49.8 123.08,50.73 C123.33,52.39 122.65,54 121.34,54.84 C121.06,55.02 120.89,55.32 120.88,55.65 C120.87,55.98 121.02,56.29 121.29,56.49 C122.17,57.13 122.74,58.08 122.89,59.17 C123.2,61.35 121.74,63.38 119.63,63.7 L114.8,64.42 C114.62,64.43 114.43,64.45 114.25,64.45 Z" fill="url(#a)"/>
  <path d="M112.97,31.63 C113.18,31.63 113.39,31.65 113.6,31.69 L119.7,32.87 C120.54,33.03 121.26,33.5 121.72,34.19 C122.14,34.82 122.3,35.58 122.15,36.31 C121.98,37.17 121.44,37.72 121.02,38.03 C120.5,38.41 120.2,39.02 120.21,39.66 C120.22,40.3 120.53,40.9 121.06,41.27 C121.85,41.83 122.29,42.86 122.2,43.97 C122.13,44.81 121.77,45.57 121.18,46.1 C120.77,46.47 120.54,47 120.53,47.55 C120.52,48.1 120.74,48.63 121.14,49.02 C121.5,49.37 121.96,49.98 122.1,50.88 C122.29,52.13 121.77,53.38 120.81,54.01 C120.26,54.37 119.92,54.97 119.9,55.63 C119.88,56.29 120.19,56.91 120.72,57.3 C121.38,57.78 121.8,58.5 121.92,59.31 C122.15,60.95 121.07,62.47 119.5,62.71 L114.67,63.43 C114.54,63.45 114.4,63.46 114.26,63.46 C112.86,63.46 111.64,62.36 111.44,60.9 C111.33,60.09 111.52,59.29 112,58.64 C112.38,58.12 112.49,57.44 112.28,56.82 C112.07,56.2 111.58,55.73 110.96,55.54 C109.9,55.22 109.09,54.23 108.91,53.01 C108.7,51.63 109.35,50.29 110.49,49.75 C111.28,49.37 111.73,48.53 111.61,47.67 C111.49,46.81 110.82,46.12 109.96,45.98 C108.74,45.78 107.88,44.44 108.01,42.95 C108.12,41.61 109.01,40.47 110.12,40.25 C110.87,40.1 111.47,39.53 111.66,38.78 C111.85,38.03 111.59,37.25 111,36.76 C110.16,36.06 109.77,35.03 109.98,34.02 C110.24,32.62 111.5,31.63 112.97,31.63 M112.97,29.63 C110.59,29.63 108.47,31.25 108,33.59 C107.63,35.39 108.35,37.14 109.7,38.27 C107.76,38.67 106.19,40.47 105.99,42.77 C105.77,45.35 107.37,47.57 109.61,47.94 C107.73,48.84 106.57,50.99 106.92,53.3 C107.23,55.35 108.63,56.93 110.37,57.45 C109.62,58.48 109.25,59.8 109.44,61.17 C109.79,63.66 111.87,65.45 114.24,65.45 C114.47,65.45 114.7,65.43 114.94,65.4 L119.77,64.68 C122.42,64.29 124.26,61.75 123.87,59.02 C123.67,57.61 122.91,56.44 121.87,55.67 C123.45,54.65 124.37,52.67 124.05,50.57 C123.87,49.36 123.29,48.33 122.5,47.57 C123.41,46.74 124.04,45.52 124.16,44.13 C124.32,42.25 123.5,40.56 122.18,39.63 C123.12,38.93 123.83,37.92 124.08,36.71 C124.62,34.04 122.82,31.45 120.06,30.91 L113.96,29.73 C113.64,29.66 113.3,29.63 112.97,29.63 Z" fill="#4A2F27"/>
  <path d="M111.18,37.051 Q116.534,37.264 121.095,38.147 Q122.568,38.433 122.283,39.905 Q122.14,40.641 121.701,40.938 Q121.261,41.235 120.525,41.093 Q116.187,40.253 111.06,40.049 Q109.562,39.989 109.621,38.49 Q109.651,37.741 110.041,37.381 Q110.43,37.021 111.18,37.051 Z" fill="#4A2F27"/>
  <path d="M111.208,46.053 Q112.371,46.121 114.574,46.12 Q118.719,46.117 121.095,46.577 Q122.568,46.863 122.283,48.335 Q122.14,49.071 121.701,49.368 Q121.261,49.665 120.525,49.523 Q118.432,49.117 114.576,49.12 Q112.284,49.121 111.032,49.047 Q110.283,49.004 109.931,48.607 Q109.579,48.211 109.623,47.462 Q109.71,45.965 111.208,46.053 Z" fill="#4A2F27"/>
  <path d="M111.923,55.512 Q116.156,54.98 120.82,54.98 Q122.32,54.98 122.32,56.48 Q122.32,57.98 120.82,57.98 Q116.344,57.98 112.297,58.488 Q110.809,58.675 110.622,57.187 Q110.435,55.699 111.923,55.512 Z" fill="#4A2F27"/>
</svg>
